build/img/logo.svg

<svg preserveAspectRatio="none" viewBox="0 0 104 26" fill="none" xmlns="http://www.w3.org/2000/svg">
<path d="M30.1361 9.336C30.6161 9.336 31.0241 9.404 31.3601 9.54C31.6961 9.676 32.0241 9.868 32.3441 10.116C32.4321 10.188 32.5081 10.224 32.5721 10.224C32.7321 10.224 32.8361 9.984 32.8841 9.504H33.1601C33.1281 10.024 33.1121 10.944 33.1121 12.264H32.8361C32.7481 11.744 32.6681 11.372 32.5961 11.148C32.5241 10.916 32.4041 10.696 32.2361 10.488C31.9961 10.176 31.6881 9.944 31.3121 9.792C30.9441 9.632 30.5441 9.552 30.1121 9.552C29.5921 9.552 29.1361 9.724 28.7441 10.068C28.3601 10.412 28.0601 10.904 27.8441 11.544C27.6281 12.176 27.5201 12.92 27.5201 13.776C27.5201 14.648 27.6361 15.396 27.8681 16.02C28.1001 16.644 28.4201 17.12 28.8281 17.448C29.2441 17.768 29.7121 17.928 30.2321 17.928C30.6321 17.928 31.0201 17.852 31.3961 17.7C31.7721 17.548 32.0681 17.32 32.2841 17.016C32.4441 16.792 32.5601 16.552 32.6321 16.296C32.7041 16.04 32.7721 15.648 32.8361 15.12H33.1121C33.1121 16.496 33.1281 17.456 33.1601 18H32.8841C32.8601 17.744 32.8241 17.564 32.7761 17.46C32.7361 17.348 32.6761 17.292 32.5961 17.292C32.5321 17.292 32.4481 17.324 32.3441 17.388C31.9841 17.644 31.6401 17.84 31.3121 17.976C30.9841 18.104 30.5881 18.168 30.1241 18.168C29.3641 18.168 28.6961 17.996 28.1201 17.652C27.5521 17.308 27.1081 16.812 26.7881 16.164C26.4761 15.508 26.3201 14.728 26.3201 13.824C26.3201 12.944 26.4801 12.164 26.8001 11.484C27.1281 10.804 27.5801 10.276 28.1561 9.9C28.7401 9.524 29.4001 9.336 30.1361 9.336ZM40.0778 9.336C40.8378 9.336 41.5018 9.508 42.0698 9.852C42.6458 10.196 43.0898 10.696 43.4018 11.352C43.7218 12 43.8818 12.776 43.8818 13.68C43.8818 14.56 43.7178 15.34 43.3898 16.02C43.0698 16.7 42.6178 17.228 42.0338 17.604C41.4578 17.98 40.8018 18.168 40.0658 18.168C39.3058 18.168 38.6378 17.996 38.0618 17.652C37.4938 17.308 37.0498 16.812 36.7298 16.164C36.4178 15.508 36.2618 14.728 36.2618 13.824C36.2618 12.944 36.4218 12.164 36.7418 11.484C37.0698 10.804 37.5218 10.276 38.0978 9.9C38.6818 9.524 39.3418 9.336 40.0778 9.336ZM40.0298 9.552C39.5178 9.552 39.0658 9.732 38.6738 10.092C38.2898 10.444 37.9898 10.94 37.7738 11.58C37.5658 12.22 37.4618 12.952 37.4618 13.776C37.4618 14.608 37.5778 15.34 37.8098 15.972C38.0498 16.604 38.3698 17.092 38.7698 17.436C39.1698 17.78 39.6178 17.952 40.1138 17.952C40.6258 17.952 41.0738 17.776 41.4578 17.424C41.8498 17.064 42.1498 16.564 42.3578 15.924C42.5738 15.284 42.6818 14.552 42.6818 13.728C42.6818 12.896 42.5618 12.164 42.3218 11.532C42.0898 10.9 41.7738 10.412 41.3738 10.068C40.9738 9.724 40.5258 9.552 40.0298 9.552ZM54.1466 9.744C53.8666 9.76 53.6586 9.804 53.5226 9.876C53.3866 9.94 53.2946 10.052 53.2466 10.212C53.1986 10.364 53.1746 10.592 53.1746 10.896V18.06H52.8986L47.8586 10.272V16.608C47.8586 16.92 47.8826 17.152 47.9306 17.304C47.9866 17.456 48.0906 17.568 48.2426 17.64C48.3946 17.704 48.6306 17.744 48.9506 17.76V18C48.6626 17.976 48.2546 17.964 47.7266 17.964C47.2466 17.964 46.8746 17.976 46.6106 18V17.76C46.8906 17.744 47.0986 17.704 47.2346 17.64C47.3706 17.568 47.4626 17.456 47.5106 17.304C47.5586 17.144 47.5826 16.912 47.5826 16.608V10.776C47.5826 10.472 47.5586 10.252 47.5106 10.116C47.4626 9.98 47.3706 9.888 47.2346 9.84C47.1066 9.792 46.8986 9.76 46.6106 9.744V9.504C46.8746 9.528 47.2466 9.54 47.7266 9.54C48.0866 9.54 48.3986 9.528 48.6626 9.504L52.8986 16.032V10.896C52.8986 10.584 52.8706 10.352 52.8146 10.2C52.7666 10.048 52.6666 9.94 52.5146 9.876C52.3626 9.804 52.1266 9.76 51.8066 9.744V9.504C52.0946 9.528 52.5026 9.54 53.0306 9.54C53.5106 9.54 53.8826 9.528 54.1466 9.504V9.744ZM65.3332 18.348C65.1572 18.956 64.9052 19.412 64.5772 19.716C64.1852 20.076 63.6452 20.256 62.9572 20.256C62.5892 20.256 62.2292 20.2 61.8772 20.088C61.5252 19.976 61.0812 19.8 60.5452 19.56C59.9532 19.304 59.4692 19.112 59.0932 18.984L58.8052 18.9C58.4612 19.02 58.1292 19.08 57.8092 19.08C57.4412 19.08 57.2572 19 57.2572 18.84C57.2572 18.672 57.4732 18.588 57.9052 18.588C58.1852 18.588 58.4852 18.62 58.8052 18.684C59.0612 18.612 59.3572 18.5 59.6932 18.348C59.9012 18.252 60.0572 18.184 60.1612 18.144C59.4812 18.08 58.8892 17.868 58.3852 17.508C57.8892 17.148 57.5012 16.656 57.2212 16.032C56.9492 15.4 56.8132 14.664 56.8132 13.824C56.8132 12.944 56.9732 12.164 57.2932 11.484C57.6212 10.804 58.0732 10.276 58.6492 9.9C59.2332 9.524 59.8932 9.336 60.6292 9.336C61.3892 9.336 62.0532 9.508 62.6212 9.852C63.1972 10.196 63.6412 10.696 63.9532 11.352C64.2732 12 64.4332 12.776 64.4332 13.68C64.4332 14.512 64.2892 15.256 64.0012 15.912C63.7132 16.56 63.3092 17.08 62.7892 17.472C62.2692 17.856 61.6732 18.08 61.0012 18.144V18.156C60.8092 18.18 60.6412 18.212 60.4972 18.252C60.3612 18.3 60.1772 18.372 59.9452 18.468C59.6572 18.596 59.4172 18.688 59.2252 18.744C60.1132 18.92 60.8652 19.06 61.4812 19.164C62.1052 19.268 62.6212 19.32 63.0292 19.32C63.5972 19.32 64.0452 19.236 64.3732 19.068C64.7092 18.908 64.9692 18.644 65.1532 18.276L65.3332 18.348ZM58.0132 13.776C58.0132 14.608 58.1292 15.34 58.3612 15.972C58.6012 16.604 58.9212 17.092 59.3212 17.436C59.7212 17.78 60.1692 17.952 60.6652 17.952C61.1772 17.952 61.6252 17.776 62.0092 17.424C62.4012 17.064 62.7012 16.564 62.9092 15.924C63.1252 15.284 63.2332 14.552 63.2332 13.728C63.2332 12.896 63.1132 12.164 62.8732 11.532C62.6412 10.9 62.3252 10.412 61.9252 10.068C61.5252 9.724 61.0772 9.552 60.5812 9.552C60.0692 9.552 59.6172 9.732 59.2252 10.092C58.8412 10.444 58.5412 10.94 58.3252 11.58C58.1172 12.22 58.0132 12.952 58.0132 13.776ZM74.5414 9.744C74.2614 9.76 74.0534 9.804 73.9174 9.876C73.7814 9.94 73.6894 10.052 73.6414 10.212C73.5934 10.364 73.5694 10.592 73.5694 10.896V14.508C73.5694 15.084 73.5294 15.58 73.4494 15.996C73.3774 16.404 73.2534 16.756 73.0774 17.052C72.8774 17.396 72.5814 17.668 72.1894 17.868C71.8054 18.068 71.3694 18.168 70.8814 18.168C70.0014 18.168 69.3294 17.952 68.8654 17.52C68.5134 17.192 68.2774 16.82 68.1574 16.404C68.0374 15.988 67.9774 15.368 67.9774 14.544V10.776C67.9774 10.472 67.9534 10.252 67.9054 10.116C67.8574 9.98 67.7654 9.888 67.6294 9.84C67.5014 9.792 67.2934 9.76 67.0054 9.744V9.504C67.3414 9.528 67.8534 9.54 68.5414 9.54C69.1894 9.54 69.6974 9.528 70.0654 9.504V9.744C69.7774 9.76 69.5654 9.792 69.4294 9.84C69.3014 9.888 69.2134 9.98 69.1654 10.116C69.1174 10.252 69.0934 10.472 69.0934 10.776V14.748C69.0934 15.388 69.1374 15.92 69.2254 16.344C69.3134 16.768 69.4934 17.108 69.7654 17.364C70.0454 17.62 70.4534 17.748 70.9894 17.748C71.8374 17.748 72.4334 17.476 72.7774 16.932C73.1214 16.388 73.2934 15.624 73.2934 14.64V10.896C73.2934 10.464 73.2134 10.168 73.0534 10.008C72.9014 9.848 72.6174 9.76 72.2014 9.744V9.504C72.4894 9.528 72.8974 9.54 73.4254 9.54C73.9054 9.54 74.2774 9.528 74.5414 9.504V9.744ZM83.1891 16.464C83.1891 16.92 83.2171 17.432 83.2731 18C82.7291 17.976 81.8131 17.964 80.5251 17.964C78.9891 17.964 77.8291 17.976 77.0451 18V17.76C77.3331 17.744 77.5411 17.712 77.6691 17.664C77.8051 17.616 77.8971 17.524 77.9451 17.388C77.9931 17.252 78.0171 17.032 78.0171 16.728V10.776C78.0171 10.472 77.9931 10.252 77.9451 10.116C77.8971 9.98 77.8051 9.888 77.6691 9.84C77.5411 9.792 77.3331 9.76 77.0451 9.744V9.504C77.8291 9.528 78.9891 9.54 80.5251 9.54C81.7011 9.54 82.5371 9.528 83.0331 9.504C82.9771 10.032 82.9491 10.504 82.9491 10.92C82.9491 11.232 82.9611 11.48 82.9851 11.664H82.7091C82.6531 11.144 82.5811 10.76 82.4931 10.512C82.4051 10.256 82.2571 10.072 82.0491 9.96C81.8411 9.84 81.5251 9.78 81.1011 9.78H80.1051C79.8171 9.78 79.6051 9.804 79.4691 9.852C79.3411 9.892 79.2531 9.98 79.2051 10.116C79.1571 10.252 79.1331 10.472 79.1331 10.776V13.608H79.9251C80.2051 13.608 80.4211 13.544 80.5731 13.416C80.7251 13.28 80.8251 13.124 80.8731 12.948C80.9291 12.764 80.9731 12.536 81.0051 12.264L81.0411 12.024H81.3171C81.2931 12.36 81.2811 12.736 81.2811 13.152V13.728C81.2811 14.136 81.3051 14.704 81.3531 15.432H81.0771C81.0691 15.376 81.0451 15.184 81.0051 14.856C80.9651 14.52 80.8531 14.268 80.6691 14.1C80.4931 13.932 80.2451 13.848 79.9251 13.848H79.1331V16.728C79.1331 17.032 79.1571 17.252 79.2051 17.388C79.2531 17.524 79.3411 17.616 79.4691 17.664C79.6051 17.704 79.8171 17.724 80.1051 17.724H80.9811C81.4771 17.724 81.8531 17.66 82.1091 17.532C82.3731 17.396 82.5651 17.184 82.6851 16.896C82.8051 16.6 82.8931 16.168 82.9491 15.6H83.2251C83.2011 15.816 83.1891 16.104 83.1891 16.464ZM88.6056 9.372C88.9576 9.372 89.2336 9.412 89.4336 9.492C89.6416 9.564 89.8536 9.672 90.0696 9.816C90.2456 9.928 90.3816 9.984 90.4776 9.984C90.5496 9.984 90.6056 9.944 90.6456 9.864C90.6856 9.776 90.7176 9.64 90.7416 9.456H91.0176C90.9776 9.92 90.9576 10.736 90.9576 11.904H90.6816C90.6336 11.256 90.4456 10.712 90.1176 10.272C89.7976 9.824 89.3296 9.6 88.7136 9.6C88.2816 9.6 87.9296 9.732 87.6576 9.996C87.3856 10.252 87.2496 10.584 87.2496 10.992C87.2496 11.296 87.3176 11.56 87.4536 11.784C87.5976 12.008 87.7776 12.2 87.9936 12.36C88.2096 12.52 88.5176 12.724 88.9176 12.972L89.2656 13.188C89.7696 13.5 90.1656 13.776 90.4536 14.016C90.7496 14.248 90.9856 14.516 91.1616 14.82C91.3376 15.124 91.4256 15.48 91.4256 15.888C91.4256 16.616 91.1856 17.18 90.7056 17.58C90.2256 17.972 89.6176 18.168 88.8816 18.168C88.4976 18.168 88.1816 18.128 87.9336 18.048C87.6936 17.968 87.4616 17.86 87.2376 17.724C87.0616 17.612 86.9256 17.556 86.8296 17.556C86.7576 17.556 86.7016 17.6 86.6616 17.688C86.6216 17.768 86.5896 17.9 86.5656 18.084H86.2896C86.3216 17.644 86.3376 16.684 86.3376 15.204H86.6136C86.6696 16.012 86.8696 16.668 87.2136 17.172C87.5576 17.676 88.0856 17.928 88.7976 17.928C89.2296 17.928 89.5976 17.796 89.9016 17.532C90.2056 17.26 90.3576 16.86 90.3576 16.332C90.3576 15.884 90.2056 15.504 89.9016 15.192C89.6056 14.88 89.1336 14.528 88.4856 14.136C88.0136 13.848 87.6296 13.592 87.3336 13.368C87.0456 13.144 86.8096 12.876 86.6256 12.564C86.4416 12.244 86.3496 11.872 86.3496 11.448C86.3496 10.776 86.5656 10.264 86.9976 9.912C87.4296 9.552 87.9656 9.372 88.6056 9.372ZM100.798 9.504C100.742 10.072 100.714 10.584 100.714 11.04C100.714 11.44 100.726 11.768 100.75 12.024H100.474C100.41 11.408 100.33 10.952 100.234 10.656C100.138 10.352 99.9701 10.132 99.7301 9.996C99.4901 9.852 99.1221 9.78 98.6261 9.78H97.9781V16.608C97.9781 16.944 98.0101 17.188 98.0741 17.34C98.1381 17.492 98.2501 17.596 98.4101 17.652C98.5701 17.708 98.8301 17.744 99.1901 17.76V18C98.7741 17.976 98.1861 17.964 97.4261 17.964C96.6261 17.964 96.0341 17.976 95.6501 18V17.76C96.0101 17.744 96.2701 17.708 96.4301 17.652C96.5901 17.596 96.7021 17.492 96.7661 17.34C96.8301 17.188 96.8621 16.944 96.8621 16.608V9.78H96.2141C95.7181 9.78 95.3501 9.852 95.1101 9.996C94.8701 10.132 94.7021 10.352 94.6061 10.656C94.5101 10.952 94.4301 11.408 94.3661 12.024H94.0901C94.1141 11.768 94.1261 11.44 94.1261 11.04C94.1261 10.584 94.0981 10.072 94.0421 9.504C94.7061 9.528 95.8341 9.54 97.4261 9.54C99.0101 9.54 100.134 9.528 100.798 9.504Z" fill="#1b1a17"/>
<path d="M21.0099 8.69398C21.8207 10.2061 22.1602 11.8434 22.0802 13.4394C21.9256 16.5213 20.2074 19.4464 17.2917 21.0099C15.5877 21.9235 13.7244 22.2389 11.9404 22.0295C9.08509 21.6942 6.43639 20.0156 4.97576 17.2916C2.60158 12.8639 4.2663 7.34991 8.69401 4.97573C9.74841 4.41035 10.8633 4.07434 11.9822 3.94966C13.622 3.76696 15.2725 4.038 16.754 4.70933C18.5103 5.50517 20.0281 6.86288 21.0099 8.69398Z" stroke="url(#paint0_linear)"/>
<defs>
<linearGradient id="paint0_linear" x1="3.75599" y1="11.7231" x2="23.9646" y2="12.9918" gradientUnits="userSpaceOnUse">
<stop offset="0.288448" stop-color="#1b1a17"/>
<stop offset="0.780176" stop-color="#818d92" stop-opacity="0"/>
</linearGradient>
</defs>
</svg>

<svg preserveAspectRatio="none" viewBox="0 0 104 26" fill="none" xmlns="http://www.w3.org/2000/svg"><path d="M30.136 9.336c.48 0 .888.068 1.224.204.336.136.664.328.984.576.088.072.164.108.228.108.16 0 .264-.24.312-.72h.276c-.032.52-.048 1.44-.048 2.76h-.276c-.088-.52-.168-.892-.24-1.116a1.984 1.984 0 00-.36-.66 2.167 2.167 0 00-.924-.696 2.977 2.977 0 00-1.2-.24c-.52 0-.976.172-1.368.516-.384.344-.684.836-.9 1.476-.216.632-.324 1.376-.324 2.232 0 .872.116 1.62.348 2.244.232.624.552 1.1.96 1.428.416.32.884.48 1.404.48.4 0 .788-.076 1.164-.228a1.96 1.96 0 00.888-.684c.16-.224.276-.464.348-.72.072-.256.14-.648.204-1.176h.276c0 1.376.016 2.336.048 2.88h-.276c-.024-.256-.06-.436-.108-.54-.04-.112-.1-.168-.18-.168a.526.526 0 00-.252.096c-.36.256-.704.452-1.032.588-.328.128-.724.192-1.188.192-.76 0-1.428-.172-2.004-.516-.568-.344-1.012-.84-1.332-1.488-.312-.656-.468-1.436-.468-2.34 0-.88.16-1.66.48-2.34.328-.68.78-1.208 1.356-1.584a3.578 3.578 0 011.98-.564zm9.942 0c.76 0 1.424.172 1.992.516.576.344 1.02.844 1.332 1.5.32.648.48 1.424.48 2.328 0 .88-.164 1.66-.492 2.34-.32.68-.772 1.208-1.356 1.584-.576.376-1.232.564-1.968.564-.76 0-1.428-.172-2.004-.516-.568-.344-1.012-.84-1.332-1.488-.312-.656-.468-1.436-.468-2.34 0-.88.16-1.66.48-2.34.328-.68.78-1.208 1.356-1.584a3.578 3.578 0 011.98-.564zm-.048.216c-.512 0-.964.18-1.356.54-.384.352-.684.848-.9 1.488-.208.64-.312 1.372-.312 2.196 0 .832.116 1.564.348 2.196.24.632.56 1.12.96 1.464.4.344.848.516 1.344.516.512 0 .96-.176 1.344-.528.392-.36.692-.86.9-1.5.216-.64.324-1.372.324-2.196 0-.832-.12-1.564-.36-2.196-.232-.632-.548-1.12-.948-1.464-.4-.344-.848-.516-1.344-.516zm14.117.192c-.28.016-.488.06-.624.132a.513.513 0 00-.276.336c-.048.152-.072.38-.072.684v7.164h-.276l-5.04-7.788v6.336c0 .312.024.544.072.696.056.152.16.264.312.336.152.064.388.104.708.12V18a15.76 15.76 0 00-1.224-.036c-.48 0-.852.012-1.116.036v-.24c.28-.016.488-.056.624-.12a.553.553 0 00.276-.336c.048-.16.072-.392.072-.696v-5.832c0-.304-.024-.524-.072-.66a.431.431 0 00-.276-.276c-.128-.048-.336-.08-.624-.096v-.24c.264.024.636.036 1.116.036.36 0 .672-.012.936-.036l4.236 6.528v-5.136c0-.312-.028-.544-.084-.696a.503.503 0 00-.3-.324c-.152-.072-.388-.116-.708-.132v-.24c.288.024.696.036 1.224.036.48 0 .852-.012 1.116-.036v.24zm11.186 8.604c-.176.608-.428 1.064-.756 1.368-.392.36-.932.54-1.62.54-.368 0-.728-.056-1.08-.168a13.204 13.204 0 01-1.332-.528 20.394 20.394 0 00-1.452-.576l-.288-.084c-.344.12-.676.18-.996.18-.368 0-.552-.08-.552-.24 0-.168.216-.252.648-.252.28 0 .58.032.9.096.256-.072.552-.184.888-.336.208-.096.364-.164.468-.204-.68-.064-1.272-.276-1.776-.636-.496-.36-.884-.852-1.164-1.476-.272-.632-.408-1.368-.408-2.208 0-.88.16-1.66.48-2.34.328-.68.78-1.208 1.356-1.584a3.578 3.578 0 011.98-.564c.76 0 1.424.172 1.992.516.576.344 1.02.844 1.332 1.5.32.648.48 1.424.48 2.328 0 .832-.144 1.576-.432 2.232-.288.648-.692 1.168-1.212 1.56a3.51 3.51 0 01-1.788.672v.012c-.192.024-.36.056-.504.096-.136.048-.32.12-.552.216a5.96 5.96 0 01-.72.276c.888.176 1.64.316 2.256.42.624.104 1.14.156 1.548.156.568 0 1.016-.084 1.344-.252.336-.16.596-.424.78-.792l.18.072zm-7.32-4.572c0 .832.116 1.564.348 2.196.24.632.56 1.12.96 1.464.4.344.848.516 1.344.516.512 0 .96-.176 1.344-.528.392-.36.692-.86.9-1.5.216-.64.324-1.372.324-2.196 0-.832-.12-1.564-.36-2.196-.232-.632-.548-1.12-.948-1.464-.4-.344-.848-.516-1.344-.516-.512 0-.964.18-1.356.54-.384.352-.684.848-.9 1.488-.208.64-.312 1.372-.312 2.196zm16.528-4.032c-.28.016-.488.06-.624.132a.513.513 0 00-.276.336c-.048.152-.072.38-.072.684v3.612c0 .576-.04 1.072-.12 1.488-.072.408-.196.76-.372 1.056-.2.344-.496.616-.888.816-.384.2-.82.3-1.308.3-.88 0-1.552-.216-2.016-.648a2.44 2.44 0 01-.708-1.116c-.12-.416-.18-1.036-.18-1.86v-3.768c0-.304-.024-.524-.072-.66a.431.431 0 00-.276-.276c-.128-.048-.336-.08-.624-.096v-.24c.336.024.848.036 1.536.036.648 0 1.156-.012 1.524-.036v.24c-.288.016-.5.048-.636.096a.432.432 0 00-.264.276c-.048.136-.072.356-.072.66v3.972c0 .64.044 1.172.132 1.596.088.424.268.764.54 1.02.28.256.688.384 1.224.384.848 0 1.444-.272 1.788-.816.344-.544.516-1.308.516-2.292v-3.744c0-.432-.08-.728-.24-.888-.152-.16-.436-.248-.852-.264v-.24c.288.024.696.036 1.224.036.48 0 .852-.012 1.116-.036v.24zm8.648 6.72c0 .456.028.968.084 1.536a71.543 71.543 0 00-2.748-.036c-1.536 0-2.696.012-3.48.036v-.24c.288-.016.496-.048.624-.096a.431.431 0 00.276-.276c.048-.136.072-.356.072-.66v-5.952c0-.304-.024-.524-.072-.66a.431.431 0 00-.276-.276c-.128-.048-.336-.08-.624-.096v-.24c.784.024 1.944.036 3.48.036 1.176 0 2.012-.012 2.508-.036-.056.528-.084 1-.084 1.416 0 .312.012.56.036.744h-.276c-.056-.52-.128-.904-.216-1.152a.943.943 0 00-.444-.552c-.208-.12-.524-.18-.948-.18h-.996c-.288 0-.5.024-.636.072a.397.397 0 00-.264.264c-.048.136-.072.356-.072.66v2.832h.792c.28 0 .496-.064.648-.192a.963.963 0 00.3-.468c.056-.184.1-.412.132-.684l.036-.24h.276c-.024.336-.036.712-.036 1.128v.576c0 .408.024.976.072 1.704h-.276a49.511 49.511 0 01-.072-.576c-.04-.336-.152-.588-.336-.756-.176-.168-.424-.252-.744-.252h-.792v2.88c0 .304.024.524.072.66a.432.432 0 00.264.276c.136.04.348.06.636.06h.876c.496 0 .872-.064 1.128-.192.264-.136.456-.348.576-.636.12-.296.208-.728.264-1.296h.276a8.194 8.194 0 00-.036.864zm5.417-7.092c.352 0 .628.04.828.12.208.072.42.18.636.324.176.112.312.168.408.168.072 0 .128-.04.168-.12.04-.088.072-.224.096-.408h.276c-.04.464-.06 1.28-.06 2.448h-.276c-.048-.648-.236-1.192-.564-1.632-.32-.448-.788-.672-1.404-.672-.432 0-.784.132-1.056.396-.272.256-.408.588-.408.996 0 .304.068.568.204.792.144.224.324.416.54.576.216.16.524.364.924.612l.348.216c.504.312.9.588 1.188.828.296.232.532.5.708.804.176.304.264.66.264 1.068 0 .728-.24 1.292-.72 1.692-.48.392-1.088.588-1.824.588-.384 0-.7-.04-.948-.12a3.426 3.426 0 01-.696-.324c-.176-.112-.312-.168-.408-.168-.072 0-.128.044-.168.132-.04.08-.072.212-.096.396h-.276c.032-.44.048-1.4.048-2.88h.276c.056.808.256 1.464.6 1.968s.872.756 1.584.756c.432 0 .8-.132 1.104-.396.304-.272.456-.672.456-1.2 0-.448-.152-.828-.456-1.14-.296-.312-.768-.664-1.416-1.056a14.268 14.268 0 01-1.152-.768 2.834 2.834 0 01-.708-.804 2.2 2.2 0 01-.276-1.116c0-.672.216-1.184.648-1.536.432-.36.968-.54 1.608-.54zm12.192.132c-.056.568-.084 1.08-.084 1.536 0 .4.012.728.036.984h-.276c-.064-.616-.144-1.072-.24-1.368-.096-.304-.264-.524-.504-.66-.24-.144-.608-.216-1.104-.216h-.648v6.828c0 .336.032.58.096.732a.542.542 0 00.336.312c.16.056.42.092.78.108V18a32.751 32.751 0 00-1.764-.036c-.8 0-1.392.012-1.776.036v-.24c.36-.016.62-.052.78-.108a.542.542 0 00.336-.312c.064-.152.096-.396.096-.732V9.78h-.648c-.496 0-.864.072-1.104.216-.24.136-.408.356-.504.66-.096.296-.176.752-.24 1.368h-.276c.024-.256.036-.584.036-.984 0-.456-.028-.968-.084-1.536.664.024 1.792.036 3.384.036 1.584 0 2.708-.012 3.372-.036z" fill="#1b1a17"/><path d="M21.01 8.694a9.092 9.092 0 01-3.718 12.316 9.054 9.054 0 01-5.352 1.02A9.097 9.097 0 018.694 4.976a9.071 9.071 0 018.06-.267 9.055 9.055 0 014.256 3.985z" stroke="url(#paint0_linear)"/><defs><linearGradient id="paint0_linear" x1="3.756" y1="11.723" x2="23.965" y2="12.992" gradientUnits="userSpaceOnUse"><stop offset=".288" stop-color="#1b1a17"/><stop offset=".78" stop-color="#818d92" stop-opacity="0"/></linearGradient></defs></svg>
